icons/windows-line.svg

<svg width="24" height="24" fill="none" xmlns="http://www.w3.org/2000/svg"><g clip-path="url(#a)"><path d="M21 2.5v19l-18-2v-15l18-2Zm-2 10.499L12 13v5.487l7 .778v-6.266Zm-14 4.71 5 .556V13l-5-.001v4.71ZM19 11V4.735l-7 .777V11l7-.001V11Zm-9-5.265L5 6.29V11h5V5.734v.001Z" /></g><defs><clipPath id="a"><path fill="#fff" d="M0 0h24v24H0z"/></clipPath></defs></svg>

<svg xmlns="http://www.w3.org/2000/svg" width="24" height="24" fill="none"><g clip-path="url(#a)"><g><path fill="#121212" d="M21 2.5V21.5L3 19.5V4.5L21 2.5ZM19 12.999L12 13V18.487L19 19.265V13V12.999ZM5 17.709L10 18.265V13L5 12.999V17.709ZM19 11V4.735L12 5.512V11L19 10.999V11ZM10 5.735L5 6.29V11H10V5.734V5.735Z"/></g></g><defs><clipPath id="a"><rect width="24" height="24" fill="white"/></clipPath></defs></svg>
